X:40
T:Walls of Liscarroll, The
C:Traditional
M:6/8
R:jig
K:Dmix
d | dcA AGE | EDD D2E | GEE cEE | GAB cde |
dcA AGE | EDD D2E | GEE cEE | (D/E/D)D D2 :|
|: d | dAd ecA | dAd ecA | GEE cEE | GAB cde |
[1 dAd ecA | dAd ecA | GEE cEE | (D/E/D)D D2 :|
dcA AGE | EDD D2E | GEE cEE | (D/E/D)D D2 |]

